src/Icon/svgs/sorting.svg

<svg width="24" height="24" viewBox="0 0 24 24" fill="none" xmlns="http://www.w3.org/2000/svg">
<path d="M11.9277 15.8125L10.4777 14.4125C10.3777 14.3125 10.2277 14.3125 10.1277 14.4125L7.72769 16.8125V2.76252C7.72769 2.61252 7.62769 2.51252 7.47769 2.51252H5.47769C5.32769 2.51252 5.22769 2.61252 5.22769 2.76252V16.8125L2.82769 14.4125C2.72769 14.3125 2.57769 14.3125 2.47769 14.4125L1.07769 15.8125C0.977686 15.9125 0.977686 16.0625 1.07769 16.1625L6.32769 21.4125C6.42769 21.5125 6.57769 21.5125 6.67769 21.4125L11.9277 16.1625C11.9777 16.1125 11.9777 15.9125 11.9277 15.8125Z" fill="black"/>
<path d="M22.9277 8.21255L21.4777 9.61255C21.3777 9.71255 21.2277 9.71255 21.1277 9.61255L18.7277 7.21255V21.2625C18.7277 21.4125 18.6277 21.5125 18.4777 21.5125H16.4777C16.3277 21.5125 16.2277 21.4125 16.2277 21.2625V7.21255L13.8277 9.61255C13.7277 9.71255 13.5777 9.71255 13.4777 9.61255L12.0777 8.21255C11.9777 8.11255 11.9777 7.96255 12.0777 7.86255L17.2777 2.56255C17.3777 2.46255 17.5277 2.46255 17.6277 2.56255L22.8777 7.81255C23.0277 7.91255 23.0277 8.11255 22.9277 8.21255Z" fill="black"/>
</svg>

<svg xmlns="http://www.w3.org/2000/svg" width="24" height="24"><path d="M11.928 15.813l-1.45-1.4c-.1-.1-.25-.1-.35 0l-2.4 2.4V2.763c0-.15-.1-.25-.25-.25h-2c-.15 0-.25.1-.25.25v14.05l-2.4-2.4c-.1-.1-.25-.1-.35 0l-1.4 1.4c-.1.1-.1.25 0 .35l5.25 5.25c.1.1.25.1.35 0l5.25-5.25c.05-.05.05-.25 0-.35zm11-7.6l-1.45 1.4c-.1.1-.25.1-.35 0l-2.4-2.4v14.05c0 .15-.1.25-.25.25h-2c-.15 0-.25-.1-.25-.25V7.213l-2.4 2.4c-.1.1-.25.1-.35 0l-1.4-1.4c-.1-.1-.1-.25 0-.35l5.2-5.3c.1-.1.25-.1.35 0l5.25 5.25c.15.1.15.3.05.4z" fill="#1B1C1D"/></svg>
